X: 13431
T: Flogging, The
R: reel
M: 4/4
K: Gmajor
dc|BG G2 BGdc|BG G2 (3Bcd gd|BG G2 (3BAG dB|AD F2 ABcA|
BG G2 BGdc|BG G2 (3Bcd gd|BG G2 (3BAG dB|AFDF ABcA||
g3d BGBd|g3e fgaf|(3gfe dc BcdB|AD F2 ABcA|
g3d BGBd|g3e fgaf|bgaf (3gfe dB|AFDF ABcA||
(3Bcd gd (3Bcd gd|(3Bcd gd BG G2|(3ABd fd (3ABd fd|(3ABd fd BG G2|
(3Bcd gd (3Bcd gd|(3Bcd ef g3a|bgaf (3gfe dB|AFDF ABcA||

